X:9
T:Kempshot Hunt. JC.009
R:Reel
S:John Clare,Poet,Helpston. (1793-1864)
O:England
A:Northamptonshire
Z:vmp.P. Headford
M:C
L:1/8
Q:2/4=90
K:A
e2ce (c/B/)A ce|\
(c/B/)A ce dB B2|ce (c/B/)A cee2|cedf eAA2:|!
|:(A/B/)A ec fdec|(A/B/)A ec dBB2|(A/B/)A ec fdec|cedf eAA2:|!
|:{g}a2ec {g}a2ec|{g}a2ec dBB2|{g}a2ec {g}” NB”a2ec|cedf eAA2:|
W:NB = this note missing in MS.

